!!!OTL: 719. Gegen falsche Liebe.
!!!ODT: 1826
!!!ARE: Europa, Mitteleuropa, Deutschland, Schwaben
!!!SCT: E0719
!!!TXL: @@DE
!!!YEM: Copyright 1995, estate of Helmut Schaffrath.
**kern	**text
*ICvox	*
*M3/4	*
*k[f#]	*
*G:	*
!LO:TX:a:t=Ruhig.	!
!LO:TX:a:t=Var. bei Silcher 1826.	!
{8.d	Ach
16b	wie
=1	=1
(<4b	bald,
4g)	.
8.d	ach
16cc	wie
=2	=2
(<4cc	bald
4a)}	.
{8.g	ſchwindet
16b	.
=3	=3
(4dd	Schön-
8b)	-heit
8dd	und
8.cc	Ge-
16a	.
=4	=4
(4a	-ſtalt!
4g)	.
4r}	.
=5	=5
{8.g	Prahlſt
16b	du
8b	gleich
8b	mit
8b	dei-
8b	-nen
=6	=6
8ddL	Wangen,
8ccJ	.
4a	.
4r}	.
=7	=7
{8.a	die
16cc	wie
8cc	Schnee
8cc	und
8cc	Ro-
8cc	-ſen
=8	=8
8eeL	pran-
8ddJ	.
4b}	-gen,
{8g	auch
8b	die
=9	=9
4.dd	Ro-
8b	-ſen
8cc	wel-
8a	-ken
=10	=10
(4a	ab.
4g)}	.
==	==
!!!AGN: Liebes - Lied, Leid, Klage
!!!ONB: ESAC (Essen Associative Code) Database: ERK2
!!!AMT: simple triple
!!!AIN: vox
!!!EED: Helmut Schaffrath
!!!EEV: 1.0
!!!RDF**kern: < = below
!!!GTL: Liebeslieder [Neuere (aus dem 18. bis 19. Jahrh.) - Liebesleid] 678-740
!!!URL-scan: https://rosdok.uni-rostock.de/mcrviewer/recordIdentifier/rosdok_ppn745177662/iview2/phys_0525.iview2?x=173.98334137255915&y=1047.9948744471185&scale=0.7029437510502773&rotation=0&layout=singlePageLayout
!!!ENC: Anna Maria Matuszewska
!!!EEV: 2024/12/16
*-	*-
